dist/icons/benefits/4.svg

<svg width="60" height="60" viewBox="0 0 60 60" fill="none" xmlns="http://www.w3.org/2000/svg">
<path d="M51.4156 17.5962L55.2925 13.7193C56.3079 12.7039 56.3079 11.1347 55.2925 10.1193L51.4156 6.24237C51.1387 5.96544 50.8617 5.78083 50.5848 5.68852C50.3079 5.59621 49.9387 5.50391 49.6617 5.50391C49.0156 5.50391 48.3694 5.78083 47.9079 6.24237L44.031 10.1193L9.96944 43.9962C9.87713 44.0885 9.87713 44.1808 9.78483 44.2731L6.46175 54.0577C6.36944 54.3347 6.46175 54.6116 6.64637 54.7962C6.83098 54.8885 7.0156 54.9808 7.20021 54.9808C7.29252 54.9808 7.38483 54.9808 7.38483 54.9808L17.1694 51.7501C17.2617 51.7501 17.3541 51.6577 17.4464 51.5654L51.4156 17.5962ZM16.9848 50.0885L14.6771 47.7808L47.631 14.827L49.9387 17.1347L16.9848 50.0885ZM10.7079 45.7501L13.2002 48.2424L15.6925 50.7347L13.2002 51.5654L9.87713 48.2424L10.7079 45.7501ZM48.7387 7.16544C49.2002 6.70391 49.9387 6.70391 50.4002 7.16544L54.2771 11.0424C54.7387 11.5039 54.7387 12.2424 54.2771 12.7039L50.8617 16.1193L48.0925 13.3501L45.3233 10.5808L48.7387 7.16544ZM44.4002 11.5039L46.7079 13.8116L13.6617 46.7654L11.3541 44.4577L44.4002 11.5039ZM9.4156 49.7193L11.7233 52.027L8.2156 53.227L9.4156 49.7193Z" fill="black" fill-opacity="0.8"/>
<path d="M58.6155 24.2422H48.1847C47.8155 24.2422 47.4463 24.5191 47.4463 24.9806C47.4463 25.4422 47.7232 25.7191 48.1847 25.7191H58.6155C58.9847 25.7191 59.354 25.4422 59.354 24.9806C59.354 24.5191 58.9847 24.2422 58.6155 24.2422Z" fill="black" fill-opacity="0.8"/>
<path d="M1.3847 34.8575H15.5078C15.877 34.8575 16.2462 34.5806 16.2462 34.1191C16.2462 33.6575 15.9693 33.3806 15.5078 33.3806H1.3847C1.01547 33.3806 0.64624 33.6575 0.64624 34.1191C0.64624 34.5806 1.01547 34.8575 1.3847 34.8575Z" fill="black" fill-opacity="0.8"/>
<path d="M58.6156 33.4729H38.954C38.5848 33.4729 38.2156 33.7498 38.2156 34.2114C38.2156 34.6729 38.4925 34.9498 38.954 34.9498H58.6156C58.9848 34.9498 59.354 34.6729 59.354 34.2114C59.354 33.7498 58.9848 33.4729 58.6156 33.4729Z" fill="black" fill-opacity="0.8"/>
<path d="M58.6156 42.7036H29.7233C29.3541 42.7036 28.9849 42.9805 28.9849 43.4421C28.9849 43.9036 29.2618 44.1805 29.7233 44.1805H58.6156C58.9849 44.1805 59.3541 43.9036 59.3541 43.4421C59.3541 42.9805 58.9849 42.7036 58.6156 42.7036Z" fill="black" fill-opacity="0.8"/>
<path d="M17.9999 7.16516H43.1999C43.5692 7.16516 43.9384 6.88823 43.9384 6.42669C43.9384 5.96515 43.6615 5.68823 43.1999 5.68823H17.9999C17.6307 5.68823 17.2615 5.96515 17.2615 6.42669C17.2615 6.88823 17.6307 7.16516 17.9999 7.16516Z" fill="black" fill-opacity="0.8"/>
<path d="M11.3847 16.3964H30.7693C31.1385 16.3964 31.5078 16.1194 31.5078 15.6579C31.5078 15.1964 31.2309 14.9194 30.7693 14.9194H11.3847C11.0155 14.9194 10.6462 15.1964 10.6462 15.6579C10.6462 16.1194 11.0155 16.3964 11.3847 16.3964Z" fill="black" fill-opacity="0.8"/>
<path d="M1.3847 25.6268H24.7386C25.1078 25.6268 25.477 25.3499 25.477 24.8884C25.477 24.4268 25.2001 24.1499 24.7386 24.1499H1.3847C1.01547 24.1499 0.64624 24.4268 0.64624 24.8884C0.64624 25.3499 1.01547 25.6268 1.3847 25.6268Z" fill="black" fill-opacity="0.8"/>
<path d="M42.9231 51.9346H20.4924C20.1231 51.9346 19.7539 52.2115 19.7539 52.673C19.7539 53.1346 20.0308 53.4115 20.4924 53.4115H42.9231C43.2924 53.4115 43.6616 53.1346 43.6616 52.673C43.6616 52.2115 43.2924 51.9346 42.9231 51.9346Z" fill="black" fill-opacity="0.8"/>
</svg>

<svg width="60" height="60" fill="none" xmlns="http://www.w3.org/2000/svg"><path d="M51.416 17.596l3.877-3.877c1.015-1.015 1.015-2.584 0-3.6l-3.877-3.877c-.277-.277-.554-.461-.831-.553-.277-.093-.646-.185-.923-.185-.646 0-1.293.277-1.754.738L44.03 10.12 9.969 43.996c-.092.093-.092.185-.184.277l-3.323 9.785a.718.718 0 00.184.738c.185.093.37.185.554.185h.185l9.784-3.23c.093 0 .185-.093.277-.186l33.97-33.969zM16.985 50.088l-2.308-2.307 32.954-32.954 2.308 2.308-32.954 32.953zm-6.277-4.338l2.492 2.492 2.493 2.493-2.493.83-3.323-3.323.83-2.492zm38.03-38.585a1.17 1.17 0 011.662 0l3.877 3.877a1.17 1.17 0 010 1.662l-3.415 3.415-2.77-2.769-2.769-2.77 3.416-3.415zM44.4 11.504l2.308 2.308-33.046 32.953-2.308-2.307L44.4 11.504zM9.416 49.719l2.307 2.308-3.507 1.2 1.2-3.508zm49.199-25.477h-10.43a.728.728 0 00-.739.739c0 .461.277.738.739.738h10.43c.37 0 .739-.277.739-.738a.728.728 0 00-.739-.739zM1.385 34.858h14.123a.728.728 0 00.738-.739c0-.462-.277-.738-.738-.738H1.385a.728.728 0 00-.739.738c0 .462.37.739.739.739zm57.231-1.385H38.954a.728.728 0 00-.738.738c0 .462.276.739.738.739h19.662a.728.728 0 00.738-.739.728.728 0 00-.738-.738zm0 9.231H29.723a.728.728 0 00-.738.738c0 .462.277.739.738.739h28.893a.728.728 0 00.738-.739.728.728 0 00-.738-.738zM18 7.165h25.2c.37 0 .738-.277.738-.738 0-.462-.277-.739-.738-.739H18a.728.728 0 00-.738.739c0 .461.369.738.738.738zm-6.615 9.231h19.384c.37 0 .739-.277.739-.738 0-.462-.277-.739-.739-.739H11.385a.728.728 0 00-.739.739c0 .461.37.738.739.738zm-10 9.231h23.354a.728.728 0 00.738-.739c0-.461-.277-.738-.738-.738H1.385a.728.728 0 00-.739.738c0 .462.37.739.739.739zm41.538 26.308h-22.43a.728.728 0 00-.74.738c0 .462.278.738.74.738h22.43c.37 0 .739-.276.739-.738a.728.728 0 00-.739-.738z" fill="#000" fill-opacity=".8"/></svg>
